styles/mysource_files/sm-logo-facebook.svg

<?xml version="1.0" encoding="UTF-8" standalone="no"?>
<svg width="12px" height="22px" viewBox="0 0 12 22" version="1.1" xmlns="http://www.w3.org/2000/svg" xmlns:xlink="http://www.w3.org/1999/xlink">
    <!-- Generator: sketchtool 40.2 (33826) - http://www.bohemiancoding.com/sketch -->
    <title>D500429F-3547-41E2-8423-C629FCA87BE3</title>
    <desc>Created with sketchtool.</desc>
    <defs></defs>
    <g id="Symbols" stroke="none" stroke-width="1" fill="none" fill-rule="evenodd">
        <g id="Desktop-Footer" transform="translate(-1173.000000, -334.000000)" fill="#FFFFFF">
            <g id="Group-5">
                <g transform="translate(1173.000000, 334.000000)">
                    <path d="M11.0618836,0.00438719338 L8.3048177,0 C5.20734874,0 3.20562822,2.03675453 3.20562822,5.18917233 L3.20562822,7.58172824 L0.433521791,7.58172824 C0.193978883,7.58172824 0,7.77432603 0,8.01189255 L0,11.4784334 C0,11.7159999 0.194200068,11.9083784 0.433521791,11.9083784 L3.20562822,11.9083784 L3.20562822,20.6555645 C3.20562822,20.893131 3.39960711,21.0855095 3.63915001,21.0855095 L7.25596039,21.0855095 C7.49550329,21.0855095 7.68948218,20.8929117 7.68948218,20.6555645 L7.68948218,11.9083784 L10.9307211,11.9083784 C11.170264,11.9083784 11.3642429,11.7159999 11.3642429,11.4784334 L11.36557,8.01189255 C11.36557,7.89782553 11.3197848,7.78858441 11.2386101,7.70786005 C11.1574353,7.62713569 11.046843,7.58172824 10.931827,7.58172824 L7.68948218,7.58172824 L7.68948218,5.55352874 C7.68948218,4.57869437 7.92371666,4.08381896 9.20415423,4.08381896 L11.0614412,4.08316088 C11.3007629,4.08316088 11.4947418,3.89056309 11.4947418,3.65321593 L11.4947418,0.434332145 C11.4947418,0.197204343 11.3009841,0.00482591272 11.0618836,0.00438719338" id="Imported-Layers"></path>
                </g>
            </g>
        </g>
    </g>
</svg>

<svg width="12" height="22" viewBox="0 0 12 22" xmlns="http://www.w3.org/2000/svg"><title>D500429F-3547-41E2-8423-C629FCA87BE3</title><path d="M11.062.004L8.305 0c-3.098 0-5.1 2.037-5.1 5.19v2.392H.435a.432.432 0 0 0-.434.43v3.466c0 .238.194.43.434.43h2.772v8.748c0 .237.194.43.433.43h3.617c.24 0 .433-.193.433-.43v-8.748h3.242a.43.43 0 0 0 .433-.43l.002-3.466a.429.429 0 0 0-.434-.43H7.689V5.554c0-.975.235-1.47 1.515-1.47h1.857c.24 0 .434-.193.434-.43V.433a.432.432 0 0 0-.433-.43" fill="#FFF" fill-rule="evenodd"/></svg>
